X:157
T: SENTER KLOS ES EN BRAVE MANN
N: E1271
O: Europa, Mitteleuropa, Deutschland, Niederrhein, Meurs
R: Ansinge -, Brauchtums - Lied, Kirchen - Fest, Sankt Nikolaus
M: 2/4
L: 1/8
K: G
 | GGAA | BAGz |
GGAA | BAG
D | BBAG | B2B
B | AAAB | G2Gz

@@@ Tune index: 4841
